X: 43
T: Missa N'as tu pas &mdash; Sanctus
C: Gaspar van Weerbeke
%%abc-version 2.0
%%abcx-abcm2ps-target-version 5.9.1 (29 Sep 2008)
%%abc-creator hum2abc beta
%%abcx-conversion-date 2022/03/06 13:05:57
%%abc-copyright Copyright 2016, Kolb, Paul
%%abc-edited-by Zybina, Karina
%%humdrum-veritas 970510108
%%humdrum-veritas-data 2153077341
%%linebreak <none>
%%barnumbers 0
L: 1/4
M: 2/2
N: Derived from Gas0203d-Missa_Nas_tu_pas-Sanctus.krn
%%staves [1 2 3 4]
V: 1 clef=treble
V: 2 clef=treble-8
V: 3 clef=treble-8
V: 4 clef=bass
K: F
[V:1] F4 | 
[V:2] c4 | 
[V:3] F4- | 
[V:4] F,4 | 
[V:1] A2B2 | 
[V:2] d3e | 
[V:3] F2G2 | 
[V:4] D,2B,,3/A,,/ | 
[V:1] Ac2B | 
[V:2] f3e/d/ | 
[V:3] A3B | 
[V:4] F,,3G,, | 
[V:1] A2GA- | 
[V:2] c>d e/d/c/B/ | 
[V:3] c4- | 
[V:4] A,,>B,, C,/B,,/A,,/G,,/ | 
[V:1] AG/F/E2 | 
[V:2] A2G2- | 
[V:3] c4 | 
[V:4] F,,2C,2 | 
[V:1] D2F2 | 
[V:2] G2F2 | 
[V:3] B4 | 
[V:4] D,4 | 
[V:1] E>FGA | 
[V:2] G3F | 
[V:3] c4- | 
[V:4] C,>D,E,F, | 
[V:1] Gc>BA- | 
[V:2] EA>GF/E/ | 
[V:3] c4 | 
[V:4] C,>B,,A,,2 | 
[V:1] A/G/E/F/ G/F/E/D/ | 
[V:2] FCD2 | 
[V:3] c2B2 | 
[V:4] z2G,,2 | 
[V:1] C2z2 | 
[V:2] FE2D | 
[V:3] A4- | 
[V:4] A,,>B,,C,D,- | 
[V:1] F3G | 
[V:2] d>efe/d/ | 
[V:3] A4 | 
[V:4] D,/C,/D,2C,/B,,/ | 
[V:1] A>GEG- | 
[V:2] c>de3/d/ | 
[V:3] c4- | 
[V:4] A,,>B,, C,/D,/E,- | 
[V:1] GF2E | 
[V:2] c/B/AG2 | 
[V:3] c4 | 
[V:4] E,F,C,2 | 
[V:1] F2z2 | 
[V:2] F2A3/B/ | 
[V:3] c4 | 
[V:4] F,,2zF,- | 
[V:1] z4 | 
[V:2] c/d/e2d/c/ | 
[V:3] c3B/A/ | 
[V:4] F,E,/D,/ C,/D,/E,/F,/ | 
[V:1] z2G2 | 
[V:2] d/c/f2e | 
[V:3] BAB2 | 
[V:4] G,A,G,2 | 
[V:1] A>B c/B/c- | 
[V:2] f2z2 | 
[V:3] c4- | 
[V:4] F,>G, A,/G,/A,- | 
[V:1] c/B/A/G/AB- | 
[V:2] z4 | 
[V:3] c2cd- | 
[V:4] A,/G,/F,/E,/ F,/E,/D,/C,/ | 
[V:1] BA2G | 
[V:2] z4 | 
[V:3] dcB2 | 
[V:4] B,,C,D,E, | 
[V:1] A2AA | 
[V:2] f>ec3/d/ | 
[V:3] A4 | 
[V:4] F,4 | 
[V:1] G>A B/c/d- | 
[V:2] e/d/edf | 
[V:3] z4 | 
[V:4] z4 | 
[V:1] dc2=B | 
[V:2] ecd2 | 
[V:3] z4 | 
[V:4] z4 | 
[V:1] c4 | 
[V:2] c4 | 
[V:3] A2AA | 
[V:4] z2F,2 | 
[V:1] z4 | 
[V:2] z4 | 
[V:3] G>ABG- | 
[V:4] E,G,>F,E,/D,/ | 
[V:1] z2F2 | 
[V:2] z4 | 
[V:3] Gc2=B | 
[V:4] C,E,D,2 | 
[V:1] E>FG2 | 
[V:2] G2EC | 
[V:3] c4- | 
[V:4] C,2z2 | 
[V:1] A2GA- | 
[V:2] F2E2- | 
[V:3] c4- | 
[V:4] F,,2C,2 | 
[V:1] AG/F/EG- | 
[V:2] Ee>dc/B//A// | 
[V:3] c4 | 
[V:4] A,,>B,,C,3/D,/ | 
[V:1] GED2 | 
[V:2] G2G2 | 
[V:3] c2B2 | 
[V:4] E,C,G,,2 | 
[V:1] C2z2 | 
[V:2] zcBc- | 
[V:3] cAGA- | 
[V:4] z4 | 
[V:1] z4 | 
[V:2] c/d/e2d- | 
[V:3] AG/F/EG- | 
[V:4] z4 | 
[V:1] z4 | 
[V:2] dc2=B | 
[V:3] GED2 | 
[V:4] z2G,,2 | 
[V:1] z2G2 | 
[V:2] c>ded | 
[V:3] C2z2 | 
[V:4] A,,C,2B,, | 
[V:1] AcBA- | 
[V:2] e>fgc- | 
[V:3] C2DF/G/ | 
[V:4] A,,2G,,F,, | 
[V:1] A/G/AGA- | 
[V:2] cfef | 
[V:3] A/B/cBc- | 
[V:4] F,2G,F, | 
[V:1] A/G/F2E | 
[V:2] c2c2 | 
[V:3] cAG2 | 
[V:4] E,F,C,2 | 
[V:1] F2c2 | 
[V:2] A4 | 
[V:3] F4 | 
[V:4] F,,2A,,2 | 
[V:1] d2cA- | 
[V:2] F>GA2 | 
[V:3] z2c2 | 
[V:4] B,,2A,,F,,- | 
[V:1] ABc2 | 
[V:2] z2E2 | 
[V:3] d2cA- | 
[V:4] F,,G,,A,,2 | 
[V:1] F2EC | 
[V:2] F2G2 | 
[V:3] ABc2 | 
[V:4] D,2C,2 | 
[V:1] D2CG- | 
[V:2] A2Gc- | 
[V:3] F2EC | 
[V:4] z4 | 
[V:1] GFED/C/ | 
[V:2] c=BcB- | 
[V:3] D2CG- | 
[V:4] z4 | 
[V:1] B,D2C- | 
[V:2] B2G/E/F | 
[V:3] GFEC | 
[V:4] G,,B,,C,A,, | 
[V:1] C=B,C3/D/ | 
[V:2] G2EC | 
[V:3] D2C2 | 
[V:4] G,,2A,,3/B,,/ | 
[V:1] E>FGA- | 
[V:2] c2BA- | 
[V:3] C>DEF | 
[V:4] C,A,,G,,F,, | 
[V:1] AG/F<EF/ | 
[V:2] AdG3/A/ | 
[V:3] ABc2 | 
[V:4] F,D,C,3/B,,/ | 
[V:1] GF2E | 
[V:2] Bcdc | 
[V:3] BAG2 | 
[V:4] G,,A,,B,,C, | 
[V:1] F4- | 
[V:2] A>Bcd | 
[V:3] F4- | 
[V:4] D,>C,A,,B,, | 
[V:1] F4 ||  
[V:2] c4 ||  
[V:3] F4 ||  
[V:4] F,,4 ||  
[V:1] [M:2/2]A2AA- | 
[V:2] [M:2/2]F/G/A/B/cF | 
[V:3] [M:2/2]z4 | 
[V:4] [M:2/2]z4 | 
[V:1] AG/F/GF | 
[V:2] fe/d/ef | 
[V:3] z4 | 
[V:4] z4 | 
[V:1] z4 | 
[V:2] z4 | 
[V:3] A3A- | 
[V:4] F,,/G,,/A,,/B,,/C,F,, | 
[V:1] z4 | 
[V:2] z4 | 
[V:3] AG/F/GF | 
[V:4] F,E,/D,/E,F, | 
[V:1] z4 | 
[V:2] z4 | 
[V:3] A4 | 
[V:4] D,>C, D,/C,/A,, | 
[V:1] z4 | 
[V:2] z4 | 
[V:3] G3F/E/ | 
[V:4] C,>B,, C,/B,,/G,, | 
[V:1] z4 | 
[V:2] z4 | 
[V:3] D>C D/C/F- | 
[V:4] B,,>A,, B,,/A,,/F,, | 
[V:1] z4 | 
[V:2] z4 | 
[V:3] FEF2 | 
[V:4] G,,2F,,2 | 
[V:1] A>G A/G/E | 
[V:2] c4 | 
[V:3] z4 | 
[V:4] z4 | 
[V:1] G>F G/F/D | 
[V:2] B2B2 | 
[V:3] z4 | 
[V:4] z4 | 
[V:1] F>E F/E/C/D/ | 
[V:2] A>G A/G/A/G/ | 
[V:3] z4 | 
[V:4] z4 | 
[V:1] E/F/GA3/G/ | 
[V:2] c2Fc- | 
[V:3] z4 | 
[V:4] z4 | 
[V:1] EF2E | 
[V:2] cB/A/G2 | 
[V:3] z4 | 
[V:4] z4 | 
[V:1] F2A2 | 
[V:2] F2z2 | 
[V:3] z2c2 | 
[V:4] z2F,2 | 
[V:1] A4 | 
[V:2] z2f2 | 
[V:3] c4 | 
[V:4] F,4 | 
[V:1] G2B2 | 
[V:2] d4 | 
[V:3] B3A/G/ | 
[V:4] G,4 | 
[V:1] A3G/F/ | 
[V:2] d4 | 
[V:3] F>GAB | 
[V:4] D,4 | 
[V:1] E4 | 
[V:2] G3A | 
[V:3] c4 | 
[V:4] C,4 | 
[V:1] D3F- | 
[V:2] B3d- | 
[V:3] F4 | 
[V:4] B,,4- | 
[V:1] F/E/D/C/D2 | 
[V:2] d/e<fe/d/c/ | 
[V:3] z2F2 | 
[V:4] B,,4 | 
[V:1] z2B2 | 
[V:2] B/c/d/_e/dg- | 
[V:3] GDG2 | 
[V:4] G,,4- | 
[V:1] B2B2 | 
[V:2] gf/e/d2 | 
[V:3] z2G2- | 
[V:4] G,,4 | 
[V:1] c>B A/G/A- | 
[V:2] c2z2 | 
[V:3] G2c2 | 
[V:4] C,2F,,F,- | 
[V:1] A/G<BA/G/F/ | 
[V:2] cBdG- | 
[V:3] AGB2 | 
[V:4] F,G,>F,E,/D,/ | 
[V:1] EF2E | 
[V:2] G/A/Bc2 | 
[V:3] cFG2 | 
[V:4] C,D,C,2 | 
[V:1] F4 ||  
[V:2] c4 ||  
[V:3] F4 ||  
[V:4] F,,4 ||  
[V:1] [M:2/2]F2AB | 
[V:2] [M:2/2]f3d | 
[V:3] [M:2/2]z4 | 
[V:4] [M:2/2]z4 | 
[V:1] c>BAc- | 
[V:2] ef>ec | 
[V:3] z4 | 
[V:4] z4 | 
[V:1] c/B/A/G<FE/ | 
[V:2] f>e d/c/d- | 
[V:3] z4 | 
[V:4] z4 | 
[V:1] F/E/A2G | 
[V:2] dcB2 | 
[V:3] z4 | 
[V:4] z4 | 
[V:1] A2z2 | 
[V:2] A2z2 | 
[V:3] F2AB | 
[V:4] F,2F,D, | 
[V:1] z4 | 
[V:2] z4 | 
[V:3] c>BAc- | 
[V:4] E,F,>E,C, | 
[V:1] z4 | 
[V:2] z4 | 
[V:3] c/B/A/G/FB- | 
[V:4] F,>E, D,/C,/D,- | 
[V:1] z4 | 
[V:2] z4 | 
[V:3] BA2G | 
[V:4] D,C,B,,2 | 
[V:1] EEEC/D/ | 
[V:2] zAAA | 
[V:3] A2z2 | 
[V:4] A,,2z2 | 
[V:1] E/F/G2F- | 
[V:2] G>A B/c/d- | 
[V:3] z4 | 
[V:4] z4 | 
[V:1] F/E/D/C/D2 | 
[V:2] d/c/=B/A/=B2 | 
[V:3] z4 | 
[V:4] zD,D,D, | 
[V:1] z4 | 
[V:2] z4 | 
[V:3] c>B G/F/B | 
[V:4] C,>D, E,/F,/G,- | 
[V:1] z4 | 
[V:2] z4 | 
[V:3] AFG2 | 
[V:4] G,F,2E, | 
[V:1] zc2B/A/ | 
[V:2] F/G/A/B/ c/d/e/f/ | 
[V:3] z4 | 
[V:4] F,2z2 | 
[V:1] G/F/BAF | 
[V:2] e/d/g2f- | 
[V:3] z4 | 
[V:4] z4 | 
[V:1] G2F2 | 
[V:2] fef2 | 
[V:3] z4 | 
[V:4] z4 | 
[V:1] A4 | 
[V:2] f2f2 | 
[V:3] c2c2 | 
[V:4] F,2F,2 | 
[V:1] G4 | 
[V:2] e4 | 
[V:3] c4 | 
[V:4] C,4 | 
[V:1] B4 | 
[V:2] d3e | 
[V:3] F4- | 
[V:4] B,,3A,,/G,,/ | 
[V:1] A4 | 
[V:2] f3e/d/ | 
[V:3] F4 | 
[V:4] F,,4 | 
[V:1] c3B | 
[V:2] c>BAG | 
[V:3] A3B | 
[V:4] F,3G, | 
[V:1] A>GEG- | 
[V:2] F>EG2- | 
[V:3] c3B- | 
[V:4] A,F,C,_E,- | 
[V:1] GF2E | 
[V:2] Gc3 | 
[V:3] B/A/FG2 | 
[V:4] E,F,C,2 | 
[V:1] F4 | 
[V:2] A2F2 | 
[V:3] F2A2 | 
[V:4] D,2D,D,- | 
[V:1] z4 | 
[V:2] z4 | 
[V:3] AA2G/F/ | 
[V:4] D,C,/B,,/A,,C,- | 
[V:1] z4 | 
[V:2] z4 | 
[V:3] EG2F/E/ | 
[V:4] C,B,,/A,,/G,,B,,- | 
[V:1] z4 | 
[V:2] z4 | 
[V:3] DF2E/D/ | 
[V:4] B,,A,,/G,,/ F,,/G,,/A,,/B,,/ | 
[V:1] z4 | 
[V:2] z4 | 
[V:3] C/D/E/F/GA- | 
[V:4] C,>D,E,F, | 
[V:1] z4 | 
[V:2] z4 | 
[V:3] A/G/BAc | 
[V:4] D,>B,,C,A,, | 
[V:1] z4 | 
[V:2] z4 | 
[V:3] BA2G | 
[V:4] G,,A,,B,,2 | 
[V:1] C/D/E/F/GA- | 
[V:2] c>def | 
[V:3] A2z2 | 
[V:4] A,,2z2 | 
[V:1] A/G/BAc | 
[V:2] d>efF | 
[V:3] z4 | 
[V:4] z4 | 
[V:1] BA2G | 
[V:2] GAB2 | 
[V:3] z4 | 
[V:4] z4 | 
[V:1] A2z2 | 
[V:2] A2z2 | 
[V:3] z2A3/B/ | 
[V:4] D,>E,F,D, | 
[V:1] z4 | 
[V:2] z4 | 
[V:3] cABc | 
[V:4] E,F,G,C,- | 
[V:1] z4 | 
[V:2] z4 | 
[V:3] G>A B/c/d- | 
[V:4] C,/D,/E,D,G,- | 
[V:1] zGF3/D/ | 
[V:2] z4 | 
[V:3] dc2=B | 
[V:4] G,E,D,2 | 
[V:1] EG2E | 
[V:2] z2zc | 
[V:3] c2z2 | 
[V:4] C,2C,/D,/E,/F,/ | 
[V:1] D2z2 | 
[V:2] B2Ac- | 
[V:3] z4 | 
[V:4] G,2A,3/G,/ | 
[V:1] zcB2 | 
[V:2] c/B/AG2 | 
[V:3] z4 | 
[V:4] E,F,2E, | 
[V:1] Ac2A | 
[V:2] F/G/A/B/ c/F/f- | 
[V:3] z2zF | 
[V:4] F,2z2 | 
[V:1] G2F2 | 
[V:2] fef2 | 
[V:3] c2F3/G/ | 
[V:4] z4 | 
[V:1] z4 | 
[V:2] zF>GA/B/ | 
[V:3] A/B/cFz | 
[V:4] F,,>G,, A,,/B,,/C, | 
[V:1] z4 | 
[V:2] cFA3/B/ | 
[V:3] z4 | 
[V:4] F,,A,,>B,,C,/D,/ | 
[V:1] z4 | 
[V:2] c/d/eAc- | 
[V:3] z4 | 
[V:4] E,A,,C,3/D,/ | 
[V:1] z4 | 
[V:2] c/d/e/f/gc | 
[V:3] z4 | 
[V:4] E,/F,/G,C,F,- | 
[V:1] F>G A/B/c | 
[V:2] f>ecA | 
[V:3] z2F3/G/ | 
[V:4] F,2F,2- | 
[V:1] F>GA3/F/ | 
[V:2] cFf2 | 
[V:3] A/B/cFc | 
[V:4] F,F,>D,F, | 
[V:1] B>A G/F/_E/D/ | 
[V:2] zFG2 | 
[V:3] d2Bc- | 
[V:4] B,,2_E,C, | 
[V:1] CF2E | 
[V:2] Ac3 | 
[V:3] cAG2 | 
[V:4] F,2C,2 | 
[V:1] F4 |]  
[V:2] c4 |]  
[V:3] F4 |]  
[V:4] F,,4 |]  


